symbolic/32x32/apps/x-rebirth.svg

<svg xmlns="http://www.w3.org/2000/svg" width="32" height="32" version="1.1">
 <rect style="opacity:0.2" width="28" height="28" x="2" y="3" rx="2.1" ry="2.1"/>
 <rect style="fill:#ffc107" width="28" height="28" x="2" y="2" rx="2.1" ry="2.1"/>
 <path style="opacity:0.1" d="M 8.8500001,9 H 14.9 L 17.1,12.333333 19.85,9 H 27 l -7.15,8 4.4,8 h -6.6 L 15.449999,21.8 12.7,25 H 5 l 7.7,-8.533333 z"/>
 <path style="fill:#3e3e3e" d="M 8.8500001,8 H 14.9 L 17.1,11.333333 19.85,8 H 27 l -7.15,8 4.4,8 h -6.6 L 15.449999,20.8 12.7,24 H 5 l 7.7,-8.533333 z"/>
 <path style="fill:#ffffff;opacity:0.2" d="M 4.0996094 2 C 2.9362094 2 2 2.9362094 2 4.0996094 L 2 5.0996094 C 2 3.9362094 2.9362094 3 4.0996094 3 L 27.900391 3 C 29.063791 3 30 3.9362094 30 5.0996094 L 30 4.0996094 C 30 2.9362094 29.063791 2 27.900391 2 L 4.0996094 2 z"/>
</svg>

<svg xmlns="http://www.w3.org/2000/svg" width="32" height="32"><rect style="opacity:.2" width="28" height="28" x="2" y="3" rx="2.1" ry="2.1"/><rect style="fill:#ffc107" width="28" height="28" x="2" y="2" rx="2.1" ry="2.1"/><path style="opacity:.1" d="M8.85 9h6.05l2.2 3.333L19.85 9H27l-7.15 8 4.4 8h-6.6l-2.2-3.2L12.7 25H5l7.7-8.533z"/><path style="fill:#3e3e3e" d="M8.85 8h6.05l2.2 3.333L19.85 8H27l-7.15 8 4.4 8h-6.6l-2.2-3.2L12.7 24H5l7.7-8.533z"/><path style="fill:#fff;opacity:.2" d="M4.1 2C2.936 2 2 2.936 2 4.1v1C2 3.936 2.936 3 4.1 3h23.8c1.164 0 2.1.936 2.1 2.1v-1c0-1.164-.936-2.1-2.1-2.1H4.1z"/></svg>
